X:1
T:Honey in the Rock
T:Honey in the Rock
T:Frederick Arthur Graves
T:Frederick Arthur Graves, 1895
T:Public Domain Courtesy of the Cyber Hymnal™
T:Public Domain Courtesy of the Cyber Hymnal™
C:Frederick Arthur Graves
Z:Public Domain
Z:Courtesy of the Cyber Hymnal™
%%score ( 1 2 ) ( 3 4 )
L:1/8
Q:1/4=110
M:4/4
K:F
V:1 treble 
V:2 treble 
V:3 bass 
V:4 bass 
V:1
 C>[CF] | F<[FA] [FA]>[EG] [CF]2 [FA]2 | [Fd]2 [Fc]4 [FA]>[EG] | %3
w: 1.~O my|bro- ther, do you know the|Sav- ior, Who is|
w: 2.~Have you|“tast- ed that the Lord is|gra- cious,” Do you|
w: 3.~Do you|pray un- to God the Fa-|th- er, “What wilt|
w: 4.~Then go|out through the streets a- nd|by- ways, Preach the|
 [CF]2 ([Fd][Fd]) [Fc]2 ([FA][FA]) | [EG]6 [Fc]>[FB] | [FA]2 ([GB][GB]) [Ac]2 [Ff]2 | %6
w: wond- rous * kind and *|true? He’s the|“Rock of * your sal-|
w: walk in~the * way that’s *|new? Have you|drunk from~the * liv- ing|
w: Thou have * me to *|do?” Nev- er|fear, He~will * sure- ly|
w: Word to~the * man- y~or *|few; Say to|eve- ry * fal- len|
 [Fe]2 [Fd]4 [Fd]2 | [Fc]<[Fc] [Fc]>[Fc] [Ec]2 [CE]2 | [CF]6 ||"^Refrain" [Ac]>[GB] | %10
w: va- tion!” There’s|hon- ey in the Rock for|you.||
w: Fount- ain? There’s|hon- ey in the Rock for|you.|Oh, there’s|
w: an- swer, There’s|hon- ey in the Rock for|you.||
w: bro- ther, There’s|hon- ey in the Rock for|you.||
 [FA]<[FA] [FA]>[FA] [FA]2 [Ac]2 | [Ac][GB]- [EG-B-]2 [GB]2 [EGB]2 | %12
w: ||
w: hon- ey in the Rock, my|bro- ther, There’s * hon-|
w: ||
w: ||
 [GB]<[GB] [GB]>[GB] [Bd]2 [Ec]2 | [FA]6 !fermata![Ac]>[GB] | [FA]2 [FA]>[FA] [FB]2 [Fc]2 | %15
w: |||
w: ey in the Rock for you;|Leave your sins|for the blood to cov-|
w: |||
w: |||
 [Fd] [Fd]3- [Fd]2 [Fd]2 | [Fc]<[Fc] [Fc]>[Fc] [Ec]2 [CE]2"^riten." | F6 |] %18
w: |||
w: er, There’s * hon-|ey in the Rock for you.||
w: |||
w: |||
V:2
 C3/2 x/ | x8 | x8 | x8 | x8 | x8 | x8 | x8 | x6 || x2 | x8 | x4 (EE) x2 | x8 | x8 | x8 | x8 | x8 | %17
 (C2 D2 C2) |] %18
V:3
 [F,A,]>[F,A,] | [F,C]<[F,C] [F,C]>[F,B,] [F,A,]2 [F,C]2 | [F,B,]2 [F,A,]4 [F,C]>[F,B,] | %3
 [F,A,]2 [F,B,][F,B,] [F,A,]2 [F,C][F,C] | [C,C]6 [F,A,]>[F,D] | [F,C]2 [F,C][F,C] [F,C]2 [A,,C]2 | %6
 [B,,B,]2 [B,,B,]4 [B,,B,]2 | [C,A,]<[C,A,] [C,A,]>[C,A,] [C,G,]2 [C,B,]2 | [F,A,]6 || %9
 [F,C]>[F,C] | [F,C]<[F,C] [F,C]>[F,C] [F,C]2 [F,C]2 | [C,C][C,C] [C,C]2 [C,C][C,C] [C,C]2 | %12
 [C,C]<[C,C] [C,C]>[C,C] [C,C]2 [C,C]2 | [F,C]2 [F,C]2 [F,C]2 !fermata![F,C]>[F,C] | %14
 [F,C]2 [F,C]>[F,C] [D,B,]2 [C,A,]2 | [B,,B,] [B,,B,]3- [B,,B,]2 [B,,B,]2 | %16
 [C,A,]<[C,A,] [C,A,]>[C,A,] [C,G,]2 [C,B,]2 | (A,2 B,2 A,2) |] %18
V:4
 x2 | x8 | x8 | x8 | x8 | x8 | x8 | x8 | x6 || x2 | x8 | x8 | x8 | x8 | x8 | x8 | x8 | F,6 |] %18

